SVG_Azure_Grouped/Data/Elastic Job Agent.svg

<?xml version="1.0" encoding="UTF-8" standalone="no"?>
<!-- Generated by Microsoft Visio, SVG Export Elastic Job Agent.svg Page-1 -->

<svg
   xmlns:dc="http://purl.org/dc/elements/1.1/"
   xmlns:cc="http://creativecommons.org/ns#"
   xmlns:rdf="http://www.w3.org/1999/02/22-rdf-syntax-ns#"
   xmlns:svg="http://www.w3.org/2000/svg"
   xmlns="http://www.w3.org/2000/svg"
   xmlns:sodipodi="http://sodipodi.sourceforge.net/DTD/sodipodi-0.dtd"
   xmlns:inkscape="http://www.inkscape.org/namespaces/inkscape"
   width="0.78739846in"
   height="0.78738421in"
   viewBox="0 0 56.692597 56.691974"
   xml:space="preserve"
   class="st11"
   version="1.1"
   id="svg84"
   sodipodi:docname="Elastic Job Agent.svg"
   style="font-size:12px;overflow:visible;color-interpolation-filters:sRGB;fill:none;fill-rule:evenodd;stroke-linecap:square;stroke-miterlimit:3"
   inkscape:version="0.92.5 (2060ec1f9f, 2020-04-08)"><metadata
   id="metadata88"><rdf:RDF><cc:Work
       rdf:about=""><dc:format>image/svg+xml</dc:format><dc:type
         rdf:resource="http://purl.org/dc/dcmitype/StillImage" /></cc:Work></rdf:RDF></metadata><sodipodi:namedview
   pagecolor="#ffffff"
   bordercolor="#666666"
   borderopacity="1"
   objecttolerance="10"
   gridtolerance="10"
   guidetolerance="10"
   inkscape:pageopacity="0"
   inkscape:pageshadow="2"
   inkscape:window-width="640"
   inkscape:window-height="480"
   id="namedview86"
   showgrid="false"
   inkscape:zoom="1.4193119"
   inkscape:cx="37.795128"
   inkscape:cy="37.786956"
   inkscape:window-x="0"
   inkscape:window-y="0"
   inkscape:window-maximized="0"
   inkscape:current-layer="svg84" />
	<style
   type="text/css"
   id="style2">
	<![CDATA[
		.st1 {fill:url(#grad0-6);stroke:none;stroke-linecap:butt;stroke-width:34}
		.st2 {fill:#eaeaea}
		.st3 {stroke:none;stroke-linecap:butt;stroke-width:34}
		.st4 {fill:#50e6ff}
		.st5 {fill:#198ab3;stroke:none;stroke-linecap:butt;stroke-width:34}
		.st6 {fill:#32bedd;stroke:none;stroke-linecap:butt;stroke-width:34}
		.st7 {fill:#ffffff;stroke:none;stroke-linecap:butt;stroke-width:34}
		.st8 {fill:#9f9f9f;stroke:none;stroke-linecap:butt;stroke-width:34}
		.st9 {fill:#5e5e5e;stroke:none;stroke-linecap:butt;stroke-width:34}
		.st10 {fill:#50e6ff;stroke:none;stroke-linecap:butt;stroke-width:34}
		.st11 {fill:none;fill-rule:evenodd;font-size:12px;overflow:visible;stroke-linecap:square;stroke-miterlimit:3}
	]]>
	</style>

	<defs
   id="Patterns_And_Gradients">
		<linearGradient
   id="grad0-6"
   x1="0"
   y1="96.619142"
   x2="39.255612"
   y2="96.619142"
   gradientTransform="scale(1.0895257,0.91783054)"
   gradientUnits="userSpaceOnUse">
			<stop
   offset="0"
   stop-color="#005ba1"
   stop-opacity="1"
   id="stop4" />
			<stop
   offset="0.07"
   stop-color="#0060a9"
   stop-opacity="1"
   id="stop6" />
			<stop
   offset="0.36"
   stop-color="#0071c8"
   stop-opacity="1"
   id="stop8" />
			<stop
   offset="0.52"
   stop-color="#0078d4"
   stop-opacity="1"
   id="stop10" />
			<stop
   offset="0.64"
   stop-color="#0074cd"
   stop-opacity="1"
   id="stop12" />
			<stop
   offset="0.82"
   stop-color="#006abb"
   stop-opacity="1"
   id="stop14" />
			<stop
   offset="1"
   stop-color="#005ba1"
   stop-opacity="1"
   id="stop16" />
		</linearGradient>
	</defs>
	<g
   id="g82"
   transform="translate(-34.000441,-34.0029)">
		<title
   id="title20">Page-1</title>
		<g
   id="group19421-1"
   transform="translate(34,-34.0157)">
			<title
   id="title22">Elastic Job Agent.19421</title>
			<g
   id="group19422-2">
				<title
   id="title24">Sheet.19422</title>
				<g
   id="shape19423-3"
   transform="translate(6.94471,-12.8584)">
					<title
   id="title26">Sheet.19423</title>
					<path
   d="M 21.37,96.5 C 9.55,96.5 0,93.13 0,88.68 v 28.22 c 0,4.27 9.42,7.77 21.1,7.81 h 0.27 c 11.82,0 21.4,-3.37 21.4,-7.81 V 88.68 c -0.03,4.31 -9.62,7.82 -21.4,7.82 z"
   class="st1"
   id="path28"
   inkscape:connector-curvature="0"
   style="fill:url(#grad0-6);stroke:none;stroke-width:34;stroke-linecap:butt" />
				</g>
				<g
   id="shape19424-7"
   transform="translate(6.91133,-41.0714)">
					<title
   id="title31">Sheet.19424</title>
					<path
   d="m 42.77,116.9 c 0,4.31 -9.58,7.81 -21.4,7.81 C 9.55,124.71 0,121.34 0,116.9 c 0,-4.45 9.55,-7.81 21.4,-7.81 11.85,0 21.4,3.36 21.4,7.81 z"
   class="st2"
   id="path33"
   inkscape:connector-curvature="0"
   style="fill:#eaeaea" />
					<path
   d="m 42.77,116.9 c 0,4.31 -9.58,7.81 -21.4,7.81 C 9.55,124.71 0,121.34 0,116.9 c 0,-4.45 9.55,-7.81 21.4,-7.81 11.85,0 21.4,3.36 21.4,7.81"
   class="st3"
   id="path35"
   inkscape:connector-curvature="0"
   style="stroke:none;stroke-width:34;stroke-linecap:butt" />
				</g>
				<g
   id="shape19425-10"
   transform="translate(11.8861,-44.5391)">
					<title
   id="title38">Sheet.19425</title>
					<path
   d="m 32.82,119.73 c 0,2.76 -7.34,4.98 -16.43,4.98 -9.08,0 -16.39,-2.22 -16.39,-4.98 0,-2.76 7.35,-4.95 16.43,-4.95 9.08,0 16.42,2.22 16.42,4.95 z"
   class="st4"
   id="path40"
   inkscape:connector-curvature="0"
   style="fill:#50e6ff" />
					<path
   d="m 32.82,119.73 c 0,2.76 -7.34,4.98 -16.43,4.98 -9.08,0 -16.39,-2.22 -16.39,-4.98 0,-2.76 7.35,-4.95 16.43,-4.95 9.08,0 16.42,2.22 16.42,4.95"
   class="st3"
   id="path42"
   inkscape:connector-curvature="0"
   style="stroke:none;stroke-width:34;stroke-linecap:butt" />
				</g>
				<g
   id="shape19426-13"
   transform="translate(15.3251,-44.5391)">
					<title
   id="title45">Sheet.19426</title>
					<path
   d="M 12.99,120.94 A 39.8319,40.1648 -180 0 0 0,122.82 a 38.2961,38.6161 -180 0 0 12.99,1.89 38.029,38.3468 -180 0 0 12.99,-1.95 39.5315,39.8618 -180 0 0 -12.99,-1.82 z"
   class="st5"
   id="path47"
   inkscape:connector-curvature="0"
   style="fill:#198ab3;stroke:none;stroke-width:34;stroke-linecap:butt" />
				</g>
				<g
   id="shape19427-15"
   transform="translate(30.1828,-28.0759)">
					<title
   id="title50">Sheet.19427</title>
					<ellipse
   cx="13.2551"
   cy="111.511"
   rx="13.2551"
   ry="13.1975"
   class="st6"
   id="ellipse52"
   style="fill:#32bedd;stroke:none;stroke-width:34;stroke-linecap:butt" />
				</g>
				<g
   id="shape19428-17"
   transform="translate(33.2545,-31.0386)">
					<title
   id="title55">Sheet.19428</title>
					<ellipse
   cx="10.1834"
   cy="114.44"
   rx="10.1834"
   ry="10.2685"
   class="st7"
   id="ellipse57"
   style="fill:#ffffff;stroke:none;stroke-width:34;stroke-linecap:butt" />
				</g>
				<g
   id="shape19429-19"
   transform="translate(42.503,-40.3307)">
					<title
   id="title60">Sheet.19429</title>
					<path
   d="m 0.93,124.71 a 0.968254,0.976345 0 0 1 -0.934865,-0.94268 L 0,116.16 a 0.968254,0.976345 0 0 1 1.90312,0 L 1.9,123.77 a 0.968254,0.976345 0 0 1 -0.968254,0.94268 z"
   class="st8"
   id="path62"
   inkscape:connector-curvature="0"
   style="fill:#9f9f9f;stroke:none;stroke-width:34;stroke-linecap:butt" />
				</g>
				<g
   id="shape19430-21"
   transform="rotate(135,30.6631,112.68427)">
					<title
   id="title65">Sheet.19430</title>
					<path
   d="M 0,123.77 A 0.934887,0.9427 -180 0 0 0.934865,124.71268 0.934887,0.9427 -180 0 0 1.86973,123.77 L 1.87,118.88 A 0.934887,0.9427 -180 0 0 0.935135,117.93732 0.934887,0.9427 -180 0 0 2.7e-4,118.88 Z"
   class="st8"
   id="path67"
   inkscape:connector-curvature="0"
   style="fill:#9f9f9f;stroke:none;stroke-width:34;stroke-linecap:butt" />
				</g>
				<g
   id="shape19431-23"
   transform="translate(41.468,-39.3207)">
					<title
   id="title70">Sheet.19431</title>
					<ellipse
   cx="1.9699"
   cy="122.722"
   rx="1.9699"
   ry="1.98636"
   class="st9"
   id="ellipse72"
   style="fill:#5e5e5e;stroke:none;stroke-width:34;stroke-linecap:butt" />
				</g>
				<g
   id="shape19432-25">
					<title
   id="title75">Sheet.19432</title>
					<path
   d="m 37.19,116.13 -8.21,8.28 a 0.934865,0.942678 0 0 1 -1.36891,0 L 19.4,116.13 a 0.434045,0.437672 0 0 1 0.300492,-0.74068 L 24.74,115.39 a 0.434045,0.437672 -180 0 0 0.434045,-0.43767 L 25.17,104.58 a 0.367269,0.370338 0 0 1 0.367269,-0.33667 L 31.05,104.24 a 0.333881,0.336671 0 0 1 0.333881,0.33667 L 31.38,114.95 a 0.434045,0.437672 -180 0 0 0.467433,0.43767 L 36.89,115.39 a 0.434045,0.437672 0 0 1 0.300492,0.74068 z m -24.6,1.38 H 0.97 A 0.968254,0.976345 0 0 1 0.001746,116.53366 L 0,104.81 a 0.434045,0.437672 0 0 1 0.734537,-0.303 L 4.07,107.88 l 0.2,0.23 a 0.467433,0.471339 -180 0 0 0.634373,0 L 12.15,100.77 a 0.367269,0.370338 0 0 1 0.500821,0 L 16.56,104.71 a 0.367269,0.370338 0 0 1 0,0.50501 L 9.35,112.52 a 0.400657,0.404005 -180 0 0 0,0.63967 l 0.2,0.24033 3.34,3.37 a 0.434045,0.437672 0 0 1 -0.300492,0.74068 z m 31.08,-0.71 3.34,-3.37 0.2,-0.23 a 0.467433,0.471339 -180 0 0 0,-0.63967 L 40,105.22 a 0.367269,0.370338 0 0 1 0,-0.50501 L 43.91,100.77 a 0.333881,0.336671 0 0 1 0.467433,0 L 51.68,108.11 a 0.434045,0.437672 -180 0 0 0.600985,0 l 0.239015,-0.23 3.34,-3.37 a 0.434045,0.437672 0 0 1 0.767925,0.303 L 56.63,116.53 a 0.968254,0.976345 0 0 1 -1.00164,0.97634 L 43.97,117.51 a 0.434045,0.437672 0 0 1 -0.300492,-0.70701 z"
   class="st10"
   id="path77"
   inkscape:connector-curvature="0"
   style="fill:#50e6ff;stroke:none;stroke-width:34;stroke-linecap:butt" />
				</g>
			</g>
		</g>
	</g>
</svg>

<?xml version="1.0" encoding="UTF-8" standalone="no"?>
<!DOCTYPE svg PUBLIC "-//W3C//DTD SVG 1.1//EN" "http://www.w3.org/Graphics/SVG/1.1/DTD/svg11.dtd">
<!-- Generated by Microsoft Visio, SVG Export Elastic Job Agent.svg Page-1 -->
<svg xmlns="http://www.w3.org/2000/svg" xmlns:xlink="http://www.w3.org/1999/xlink" xmlns:ev="http://www.w3.org/2001/xml-events"
		width="1.73185in" height="1.73206in" viewBox="0 0 124.693 124.709" xml:space="preserve" color-interpolation-filters="sRGB"
		class="st11">
	<style type="text/css">
	<![CDATA[
		.st1 {fill:url(#grad0-6);stroke:none;stroke-linecap:butt;stroke-width:34}
		.st2 {fill:#eaeaea}
		.st3 {stroke:none;stroke-linecap:butt;stroke-width:34}
		.st4 {fill:#50e6ff}
		.st5 {fill:#198ab3;stroke:none;stroke-linecap:butt;stroke-width:34}
		.st6 {fill:#32bedd;stroke:none;stroke-linecap:butt;stroke-width:34}
		.st7 {fill:#ffffff;stroke:none;stroke-linecap:butt;stroke-width:34}
		.st8 {fill:#9f9f9f;stroke:none;stroke-linecap:butt;stroke-width:34}
		.st9 {fill:#5e5e5e;stroke:none;stroke-linecap:butt;stroke-width:34}
		.st10 {fill:#50e6ff;stroke:none;stroke-linecap:butt;stroke-width:34}
		.st11 {fill:none;fill-rule:evenodd;font-size:12px;overflow:visible;stroke-linecap:square;stroke-miterlimit:3}
	]]>
	</style>

	<defs id="Patterns_And_Gradients">
		<linearGradient id="grad0-6" x1="0" y1="0" x2="1" y2="0" gradientTransform="rotate(0 0.5 0.5)">
			<stop offset="0" stop-color="#005ba1" stop-opacity="1"/>
			<stop offset="0.07" stop-color="#0060a9" stop-opacity="1"/>
			<stop offset="0.36" stop-color="#0071c8" stop-opacity="1"/>
			<stop offset="0.52" stop-color="#0078d4" stop-opacity="1"/>
			<stop offset="0.64" stop-color="#0074cd" stop-opacity="1"/>
			<stop offset="0.82" stop-color="#006abb" stop-opacity="1"/>
			<stop offset="1" stop-color="#005ba1" stop-opacity="1"/>
		</linearGradient>
	</defs>
	<g>
		<title>Page-1</title>
		<g id="group18972-1" transform="translate(34,-34.0157)">
			<title>Elastic Job Agent.18972</title>
			<g id="group18973-2">
				<title>Sheet.18973</title>
				<g id="shape18974-3" transform="translate(6.94471,-12.8584)">
					<title>Sheet.18974</title>
					<path d="M21.37 96.5 C9.55 96.5 0 93.13 0 88.68 L0 116.9 C0 121.17 9.42 124.67 21.1 124.71 L21.37 124.71 C33.19
								 124.71 42.77 121.34 42.77 116.9 L42.77 88.68 C42.74 92.99 33.15 96.5 21.37 96.5 Z" class="st1"/>
				</g>
				<g id="shape18975-7" transform="translate(6.91133,-41.0714)">
					<title>Sheet.18975</title>
					<path d="M42.77 116.9 C42.77 121.21 33.19 124.71 21.37 124.71 C9.55 124.71 0 121.34 0 116.9 C0 112.45 9.55 109.09
								 21.4 109.09 C33.25 109.09 42.8 112.45 42.8 116.9 L42.77 116.9 Z" class="st2"/>
					<path d="M42.77 116.9 C42.77 121.21 33.19 124.71 21.37 124.71 C9.55 124.71 0 121.34 0 116.9 C0 112.45 9.55 109.09
								 21.4 109.09 C33.25 109.09 42.8 112.45 42.8 116.9" class="st3"/>
				</g>
				<g id="shape18976-10" transform="translate(11.8861,-44.5391)">
					<title>Sheet.18976</title>
					<path d="M32.82 119.73 C32.82 122.49 25.48 124.71 16.39 124.71 C7.31 124.71 0 122.49 0 119.73 C0 116.97 7.35
								 114.78 16.43 114.78 C25.51 114.78 32.85 117 32.85 119.73 L32.82 119.73 Z" class="st4"/>
					<path d="M32.82 119.73 C32.82 122.49 25.48 124.71 16.39 124.71 C7.31 124.71 0 122.49 0 119.73 C0 116.97 7.35
								 114.78 16.43 114.78 C25.51 114.78 32.85 117 32.85 119.73" class="st3"/>
				</g>
				<g id="shape18977-13" transform="translate(15.3251,-44.5391)">
					<title>Sheet.18977</title>
					<path d="M12.99 120.94 A39.8319 40.1648 -180 0 0 0 122.82 A38.2961 38.6161 -180 0 0 12.99 124.71 A38.029 38.3468
								 -180 0 0 25.98 122.76 A39.5315 39.8618 -180 0 0 12.99 120.94 Z" class="st5"/>
				</g>
				<g id="shape18978-15" transform="translate(30.1828,-28.0759)">
					<title>Sheet.18978</title>
					<ellipse cx="13.2551" cy="111.511" rx="13.2551" ry="13.1975" class="st6"/>
				</g>
				<g id="shape18979-17" transform="translate(33.2545,-31.0386)">
					<title>Sheet.18979</title>
					<ellipse cx="10.1834" cy="114.44" rx="10.1834" ry="10.2685" class="st7"/>
				</g>
				<g id="shape18980-19" transform="translate(42.503,-40.3307)">
					<title>Sheet.18980</title>
					<path d="M0.93 124.71 a0.968254 0.976345 0 0 1 -0.934865 -0.942678 L0 116.16 a0.968254 0.976345 0 0 1 1.90312
								 0 L1.9 123.77 a0.968254 0.976345 0 0 1 -0.968254 0.942678 Z" class="st8"/>
				</g>
				<g id="shape18981-21" transform="translate(132.025,170.682) rotate(135)">
					<title>Sheet.18981</title>
					<path d="M-0 123.77 a0.934887 0.9427 -180 0 0 0.934865 0.942678 a0.934887 0.9427 -180 0 0 0.934865 -0.942678
								 L1.87 118.88 a0.934887 0.9427 -180 0 0 -0.934865 -0.942678 a0.934887 0.9427 -180 0 0 -0.934865 0.942678
								 L0 123.77 Z" class="st8"/>
				</g>
				<g id="shape18982-23" transform="translate(41.468,-39.3207)">
					<title>Sheet.18982</title>
					<ellipse cx="1.9699" cy="122.722" rx="1.9699" ry="1.98636" class="st9"/>
				</g>
				<g id="shape18983-25">
					<title>Sheet.18983</title>
					<path d="M37.19 116.13 L28.98 124.41 a0.934865 0.942678 0 0 1 -1.36891 2.84217E-14 L19.4 116.13 a0.434045 0.437672
								 0 0 1 0.300492 -0.740676 L24.74 115.39 a0.434045 0.437672 -180 0 0 0.434045 -0.437672 L25.17 104.58
								 a0.367269 0.370338 0 0 1 0.367269 -0.336671 L31.05 104.24 a0.333881 0.336671 0 0 1 0.333881 0.336671
								 L31.38 114.95 a0.434045 0.437672 -180 0 0 0.467433 0.437672 L36.89 115.39 a0.434045 0.437672 0 0
								 1 0.300492 0.740676 ZM12.59 117.51 L0.97 117.51 a0.968254 0.976345 0 0 1 -0.968254 -0.976345 L0
								 104.81 a0.434045 0.437672 0 0 1 0.734537 -0.303004 L4.07 107.88 L4.27 108.11 a0.467433 0.471339
								 -180 0 0 0.634373 1.42109E-14 L12.15 100.77 a0.367269 0.370338 0 0 1 0.500821 -7.10543E-14 L16.56
								 104.71 a0.367269 0.370338 0 0 1 3.90799E-14 0.505006 L9.35 112.52 a0.400657 0.404005 -180 0 0 1.77636E-15
								 0.639674 L9.55 113.4 L12.89 116.77 a0.434045 0.437672 0 0 1 -0.300492 0.740676 ZM43.67 116.8 L47.01
								 113.43 L47.21 113.2 a0.467433 0.471339 -180 0 0 -2.84217E-14 -0.639674 L40 105.22 a0.367269 0.370338
								 0 0 1 4.26326E-14 -0.505006 L43.91 100.77 a0.333881 0.336671 0 0 1 0.467433 0 L51.68 108.11 a0.434045
								 0.437672 -180 0 0 0.600985 -8.52651E-14 L52.52 107.88 L55.86 104.51 a0.434045 0.437672 0 0 1 0.767925
								 0.303004 L56.63 116.53 a0.968254 0.976345 0 0 1 -1.00164 0.976345 L43.97 117.51 a0.434045 0.437672
								 0 0 1 -0.300492 -0.707008 Z" class="st10"/>
				</g>
			</g>
		</g>
	</g>
</svg>
